symbols/pl/w32-{300}.svg

<?xml version="1.0" encoding="UTF-8"?>
<svg xmlns="http://www.w3.org/2000/svg" xmlns:xlink="http://www.w3.org/1999/xlink" width="23" height="23" viewBox="0 0 23 23">
<path fill-rule="nonzero" fill="rgb(100%, 100%, 100%)" fill-opacity="1" stroke-width="20" stroke-linecap="square" stroke-linejoin="miter" stroke="rgb(0%, 0%, 0%)" stroke-opacity="1" stroke-miterlimit="5" d="M 10.003397 369.996605 L 10.003397 10.003397 L 95.838995 10.003397 L 369.996605 284.161006 L 369.996605 369.996605 Z M 10.003397 369.996605 " transform="matrix(0.0605263, 0, 0, 0.0605263, 0, 0)"/>
<path fill="none" stroke-width="15" stroke-linecap="butt" stroke-linejoin="miter" stroke="rgb(0%, 0%, 0%)" stroke-opacity="1" stroke-miterlimit="4" d="M 242.46943 280.030572 C 242.46943 292.421876 232.401495 302.489811 220.010191 302.489811 C 207.554349 302.489811 197.486414 292.421876 197.486414 280.030572 L 197.486414 234.983017 C 197.486414 222.591713 207.554349 212.523778 220.010191 212.523778 C 232.401495 212.523778 242.46943 222.591713 242.46943 234.983017 Z M 242.46943 280.030572 " transform="matrix(0.0605263, 0, 0, 0.0605263, 0, 0)"/>
<path fill="none" stroke-width="15" stroke-linecap="butt" stroke-linejoin="miter" stroke="rgb(0%, 0%, 0%)" stroke-opacity="1" stroke-miterlimit="4" d="M 167.476223 280.030572 C 167.476223 292.421876 157.408289 302.489811 145.016984 302.489811 C 132.561142 302.489811 122.493207 292.421876 122.493207 280.030572 L 122.493207 234.983017 C 122.493207 222.591713 132.561142 212.523778 145.016984 212.523778 C 157.408289 212.523778 167.476223 222.591713 167.476223 234.983017 Z M 167.476223 280.030572 " transform="matrix(0.0605263, 0, 0, 0.0605263, 0, 0)"/>
<path fill="none" stroke-width="49.999901" stroke-linecap="butt" stroke-linejoin="miter" stroke="rgb(0%, 0%, 0%)" stroke-opacity="1" stroke-miterlimit="4" d="M 375.000026 159.898142 C 375.000026 118.593808 408.559798 85.034037 450.079259 85.034037 C 491.383593 85.034037 524.943364 118.593808 524.943364 159.898142 C 524.943364 201.417603 491.383593 234.977374 450.079259 234.977374 L 424.90943 234.977374 L 450.079259 234.977374 C 491.383593 234.977374 524.943364 268.537146 524.943364 310.056607 C 524.943364 351.360941 491.383593 384.920712 450.079259 384.920712 C 408.559798 384.920712 375.000026 351.360941 375.000026 310.056607 " transform="matrix(0.0181579, 0, 0, -0.0181579, -3.934213, 19.852633)"/>
</svg>

<?xml version="1.0" encoding="UTF-8" standalone="no"?>
<!-- Created with Inkscape (http://www.inkscape.org/) -->

<svg
   width="15.999999"
   height="15.999999"
   viewBox="0 0 4.2333331 4.2333331"
   version="1.1"
   id="svg1"
   xmlns="http://www.w3.org/2000/svg"
   xmlns:svg="http://www.w3.org/2000/svg">
  <defs
     id="defs1" />
  <g
     id="layer1"
     transform="scale(0.01114035)">
    <path
       style="fill:#ffffff;stroke:#000000;stroke-width:20;stroke-linecap:square;stroke-miterlimit:5;stroke-dasharray:none;stroke-opacity:1"
       d="M 9.9999997,370 V 10.000003 H 95.857863 L 370,284.14212 V 370 Z"
       id="path11" />
    <path
       id="path18-5"
       style="fill:none;stroke:#000000;stroke-width:15;stroke-linecap:butt;stroke-dasharray:none"
       d="m 242.5,280 c 0,12.42641 -10.0736,22.5 -22.5,22.5 -12.42641,0 -22.5,-10.07359 -22.5,-22.5 v -45 c 0,-12.42641 10.0736,-22.5 22.5,-22.5 12.42641,0 22.5,10.07359 22.5,22.5 z" />
    <path
       id="path18-5-8"
       style="fill:none;stroke:#000000;stroke-width:15;stroke-linecap:butt;stroke-dasharray:none"
       d="m 167.5,280 c 0,12.42641 -10.0736,22.5 -22.5,22.5 -12.42641,0 -22.5,-10.07359 -22.5,-22.5 v -45 c 0,-12.42641 10.0736,-22.5 22.5,-22.5 12.42641,0 22.5,10.07359 22.5,22.5 z" />
    <g
       id="layer2"
       transform="matrix(0.3000001,0,0,-0.3000001,-65.000042,328.00002)">
      <path
         id="path10"
         style="fill:none;stroke:#000000;stroke-width:49.9999"
         d="m 374.99997,160 c 0,-41.42136 33.57864,-75 75,-75 41.42136,0 75,33.57864 75,75 0,41.42136 -33.57864,75 -74.99999,75 h -24.99999 25 C 491.42136,235 525,268.57864 525,310 c 0,41.42136 -33.57864,75 -75,75 -41.42136,0 -75,-33.57864 -75,-75" />
    </g>
  </g>
</svg>
